X:1
T:Minecraft End
T:Minecraft End
T:end.ogg
T:Sergeant Mooshroom
C:Sergeant Mooshroom
%%score { 1 | 2 } 3 4
L:1/8
Q:1/4=114
M:4/4
K:Bb
V:1 treble nm="Harpsichord" snm="Hch."
V:2 bass 
V:3 treble transpose=-7 nm="Horn in F" snm="F Hn."
V:4 bass nm="Violoncello" snm="Vc."
V:1
 F/G/F/G/ F/G/F/G/ F/G/F/G/ F/G/F/G/ | A/B/A/B/ A/B/A/B/ A/B/A/B/ A/B/A/B/ | %2
 F/G/F/G/ F/G/F/G/ F/G/F/G/ F/G/F/G/ | A/B/A/B/ A/B/A/B/ A/B/A/B/ A/B/A/B/ | %4
 F/G/F/G/ F/G/F/G/ F/G/F/G/ F/G/F/G/ | A/B/A/B/ A/B/A/B/ A/B/A/B/ A/B/A/B/ | %6
 F/G/F/G/ F/G/F/G/ F/G/F/G/ F/G/F/G/ | A/B/A/B/ A/B/A/B/ A/B/A/B/ A/B/A/B/ | %8
 F/G/F/G/ F/G/F/G/ F/G/F/G/ F/G/F/G/ | A/B/A/B/ A/B/A/B/ A/B/A/B/ A/B/A/B/ | %10
 F/G/F/G/ F/G/F/G/ F/G/F/G/ F/G/F/G/ | A/B/A/B/ A/B/A/B/ A/B/A/B/ A/B/A/B/ | %12
 F/G/F/G/ F/G/F/G/ F/G/F/G/ F/G/F/G/ | A/B/A/B/ A/B/A/B/ A/B/A/B/ A/B/A/B/ | %14
 F/G/F/G/ F/G/F/G/ F/G/F/G/ F/G/F/G/ | A/B/A/B/ A/B/A/B/ A/B/A/B/ A/B/A/B/ | %16
 F/G/F/G/ F/G/F/G/ F/G/F/G/ F/G/F/G/ | A/B/A/B/ A/B/A/B/ A/B/A/B/ A/B/A/B/ | %18
 F/G/F/G/ F/G/F/G/ F/G/F/G/ F/G/F/G/ | A/B/A/B/ A/B/A/B/ A/B/A/B/ A/B/A/B/ | %20
 F/G/F/G/ F/G/F/G/ F/G/F/G/ F/G/F/G/ | A/B/A/B/ A/B/A/B/ A/B/A/B/ A/B/A/B/ | %22
 F/G/F/G/ F/G/F/G/ F/G/F/G/ F/G/F/G/ | A/B/A/B/ A/B/A/B/ A/B/A/B/ A/B/A/B/ | %24
 F/G/F/G/ F/G/F/G/ F/G/F/G/ F/G/F/G/ | A/B/A/B/ A/B/A/B/ A/B/A/B/ A/B/A/B/ | %26
 F/G/F/G/ F/G/F/G/ F/G/F/G/ F/G/F/G/ | A/B/A/B/ A/B/A/B/ A/B/A/B/ A/B/A/B/ | %28
 F/G/F/G/ F/G/F/G/ F/G/F/G/ F/G/F/G/ | A/B/A/B/ A/B/A/B/ A/B/A/B/ A/B/A/B/ | %30
 F/G/F/G/ F/G/F/G/ F/G/F/G/ F/G/F/G/ | A/B/A/B/ A/B/A/B/ A/B/A/B/ A/B/A/B/ | %32
 F/G/F/G/ F/G/F/G/ F/G/F/G/ F/G/F/G/ | A/B/A/B/ A/B/A/B/ A/B/A/B/ A/B/A/B/ | %34
 F/G/F/G/ F/G/F/G/ F/G/F/G/ F/G/F/G/ | A/B/A/B/ A/B/A/B/ A/B/A/B/ A/B/A/B/ | %36
 F/G/F/G/ F/G/F/G/ F/G/F/G/ F/G/F/G/ | A/B/A/B/ A/B/A/B/ A/B/A/B/ A/B/A/B/ | %38
 F/G/F/G/ F/G/F/G/ F/G/F/G/ F/G/F/G/ | !fermata!G8 |] %40
V:2
 C,8 | G,,8 | C,8 | G,,8 | C,8 | G,,8 | C,8 | G,,8 | C,8 | G,,8 | C,8 | G,,8 | C,8 | G,,8 | C,8 | %15
 G,,8 | C,8 | G,,8 | C,8 | G,,8 | C,8 | G,,8 | C,8 | G,,8 | C,8 | G,,8 | C,8 | G,,8 | C,8 | G,,8 | %30
 C,8 | G,,8 | C,8 | G,,8 | C,8 | G,,8 | C,8 | G,,8 | C,8 | !fermata!G,,8 |] %40
V:3
[K:F] B4 c4 | A4 G4 | E4 F4 | A4 G4 | F4 B4 | G4 A4 | A4 B4 | G4 E4 | G4 c4 | A4 E4 | d4 c4 | %11
 G4 A4 | B4 A4 | F4 G4 | A4 A4 | E4 G4 | B4 B4 | A4 G4 | d4 c4 | A4 F4 | F4 B4 | B4 A4 | G4 c4 | %23
 B4 F4 | G4 B4 | d4 e4 | e4 c4 | A4 F4 | B4 A4 | G4 E4 | B4 d4 | B4 B4 | c4 B4 | G4 A4 | c4 d4 | %35
 e4 d4 | d4 c4 | G4 F4 | B4 A4 | !fermata!F8 |] %40
V:4
 B,,2 C,2 A,,2 G,,2 | B,,2 E,2 D,2 C,2 | A,,2 G,,2 C,,2 F,,2 | B,,2 G,,2 A,,2 G,,2 | %4
 G,2 G,2 F,2 E,2 | C,2 B,,2 F,,2 A,,2 | C,2 D,2 C,2 B,,2 | A,,2 _A,,2 G,,2 F,,2 | D,2 F,2 E,2 C,2 | %9
 D,2 D,2 C,2 A,,2 | F,2 A,2 C2 B,2 | G,2 D,2 B,,2 F,2 | F,2 F,2 E,2 C,2 | D,2 E,2 C,2 G,,2 | %14
 C,2 E,2 G,2 F,2 | D,2 A,,2 C,2 F,2 | D,2 A,,2 B,,2 C,2 | D,2 E,2 F,2 G,2 | F,2 D,2 G,,2 B,,2 | %19
 C,2 E,2 D,2 C,2 | C,2 F,2 B,2 F,2 | D,2 B,,2 E,2 D,2 | C,2 C,2 C,2 A,,2 | B,,2 B,,2 G,2 F,2 | %24
 A,,2 D,2 C,2 A,,2 | B,,2 E,2 D,2 D,2 | C,2 F,2 C,2 D,2 | D,2 G,2 F,2 D,2 | C,2 A,,2 A,,2 F,2 | %29
 C,2 C,2 C,2 D,2 | D,2 A,2 F,2 G,,2 | A,2 G,,2 A,2 G,,2 | D,2 D,2 C,2 A,,2 | D,2 G,2 E,2 D,2 | %34
 B,,2 D,2 D,2 G,2 | D,2 G,2 B,2 F,2 | C,2 B,,2 F,2 E,2 | B,,2 D,2 B,,2 A,,2 | A,,2 A,2 F,2 D,2 | %39
 !fermata!D,8 |] %40

